X: 1
T:The Sound of Silence
M:4/4
L:1/8
C:Paul Simon
K:F
%Verse 1
z2 DD FFAA | [C8E8G8] | C2 CC EEGG | [D8A8d8] | z F FF AAcc |
d4 c4- | c2 FF AAcc | d4 c4- |
M:2/4
c2 FF |
M:4/4
L:1/8
d d3-d2 de | f f3 e d3 | c6 dc | A8 |
M:2/4
F2 FF |
M:4/4
L:1/8
c6 E2 | F2 D2-D4
%Verse 2,3
|: z D DD FFAA | [C8E8G8c8] | C2 CC EEGE | [D8A8d8f8] | z2 DD FFAA |
d2 dc-c4 | z D DD FFAA | d2 dc- c4 |
M:2/4
z2 DD |
M:4/4
L:1/8
d2 dd d2- de | f2 ff e d3 | c6 dc | A8 |
M:2/4
F2 FF |
M:4/4
L:1/8
c6 z E | F D3-D4 :|
%Verse 4
z2 DD FFAA | G8 | z2 CC EEGE | F8 | z2 FF AAcc | d3 c-c4 |
z2 FF AAcc | d3 c-c4 |
M:2/4
z2 FF |
M:4/4
L:1/8
d6 e2 | f f3 e d3 | c8 | z4 z E2 F- | F F3-F2 FF | c6 z E |
F D3-D4 ||
%Verse 5
z2 FF AAcc | G8 | z2 CC EEGG | F8 | z2 FF AAcc | d3 c-c4 |
z2 FF AAcc | d3 c-c4 | z2 FF A2 cc | d2 dd dd e2 | ffff e d3 |
c4- ccdc | A6 z E | F F3-F2 FF | c6 z E | F D3-D4- | D4 z4 |]

